neru-light-classic/32x32/apps/urserver.svg

<svg xmlns="http://www.w3.org/2000/svg" height="32" width="32" version="1"><rect width="28.203" height="28.203" x="1.898" y="1.898" ry="5.575" fill="#5db43e" fill-rule="evenodd"/><path d="M9.5 7C8.503 7 8 7.486 8 8.5c0 1.056.45 1.5 1.5 1.5C16.956 10 22 15.044 22 22.5c0 .933.509 1.5 1.5 1.5 1.02 0 1.5-.596 1.5-1.5C25 13.387 18.613 7 9.5 7zM21 7l4 4V9c0-1.108-.892-2-2-2zM9.5 13c-.969 0-1.5.428-1.5 1.5 0 1.027.42 1.5 1.5 1.5 4.142 0 6.5 2.358 6.5 6.5 0 .883.507 1.5 1.5 1.5.969 0 1.5-.538 1.5-1.5 0-5.799-3.701-9.5-9.5-9.5zm.5 6a3 3 0 1 0 0 6 3 3 0 0 0 0-6z" fill="#fff"/></svg>

<?xml version="1.0" encoding="UTF-8" standalone="no"?>
<svg
   xmlns:dc="http://purl.org/dc/elements/1.1/"
   xmlns:cc="http://creativecommons.org/ns#"
   xmlns:rdf="http://www.w3.org/1999/02/22-rdf-syntax-ns#"
   xmlns:svg="http://www.w3.org/2000/svg"
   xmlns="http://www.w3.org/2000/svg"
   xmlns:sodipodi="http://sodipodi.sourceforge.net/DTD/sodipodi-0.dtd"
   xmlns:inkscape="http://www.inkscape.org/namespaces/inkscape"
   height="32"
   width="32"
   version="1"
   id="svg12"
   sodipodi:docname="urserver.svg"
   inkscape:version="0.92.1 r">
  <metadata
     id="metadata18">
    <rdf:RDF>
      <cc:Work
         rdf:about="">
        <dc:format>image/svg+xml</dc:format>
        <dc:type
           rdf:resource="http://purl.org/dc/dcmitype/StillImage" />
      </cc:Work>
    </rdf:RDF>
  </metadata>
  <defs
     id="defs16" />
  <sodipodi:namedview
     pagecolor="#ffffff"
     bordercolor="#666666"
     borderopacity="1"
     objecttolerance="10"
     gridtolerance="10"
     guidetolerance="10"
     inkscape:pageopacity="0"
     inkscape:pageshadow="2"
     inkscape:window-width="640"
     inkscape:window-height="480"
     id="namedview14"
     showgrid="false"
     inkscape:zoom="8.8125"
     inkscape:cx="-5.6737589"
     inkscape:cy="16"
     inkscape:current-layer="svg12" />
  <rect
     style="opacity:1;fill:#5db43e;fill-opacity:1;fill-rule:evenodd;stroke:none;stroke-width:1.03534329;stroke-linecap:round;stroke-linejoin:bevel;stroke-miterlimit:4;stroke-dasharray:none;stroke-dashoffset:0;stroke-opacity:1"
     id="rect4497-3"
     width="28.203388"
     height="28.203388"
     x="1.8983059"
     y="1.8983059"
     ry="5.575182" />
  <path
     d="m 9.5,7.0000001 c -0.9974,0 -1.5,0.4855 -1.5,1.5 C 8,9.5560001 8.4491,10 9.5,10 16.956,10 22,15.044 22,22.5 22,23.433 22.509,24 23.5,24 24.52,24 25,23.404 25,22.5 25,13.387 18.613,7.0000001 9.5,7.0000001 Z m 11.5,0 L 25,11 V 9.0000001 c 0,-1.108 -0.892,-2 -2,-2 z M 9.5,13 C 8.5314,13 8,13.428 8,14.5 8,15.527 8.4202,16 9.5,16 13.642,16 16,18.358 16,22.5 16,23.383 16.507,24 17.5,24 18.469,24 19,23.462 19,22.5 19,16.701 15.299,13 9.5,13 Z m 0.5,6 c -1.6569,0 -3,1.343 -3,3 0,1.657 1.3431,3 3,3 1.657,0 3,-1.343 3,-3 0,-1.657 -1.343,-3 -3,-3 z"
     style="fill:#ffffff;enable-background:new"
     id="path8"
     inkscape:connector-curvature="0" />
</svg>
